X:1
T:James Gibb editions
T:Lord Jesus, think on me (Andenken) - Barnby
%%score [ ( 1 2 ) ( 3 4 ) ]
L:1/8
Q:1/4=72
M:4/4
K:D
V:1 treble nm="Midi_74"
V:2 treble 
V:3 bass nm="Midi_74"
V:4 bass 
V:1
"^Andenken (S.M.)""^Lord Jesus, think on me""^Joseph Barnby\n(1838-96)""^Slow" A2 | %1
 G2"^1" F2 B2 G2 | E6 || A2 | F2 B2 ^A2 c2 | B6 ||[M:4/4] d2 | c2 B2 A2 B2 | A2 G2 F2 ||"^1" F2 | %10
 A2"^1" G2 F2 E2 | D6 || G4 F4 |] %13
V:2
 F2 | E2 D2 G2 E2- | C6 || E2 | D2 F2 F2 E2 | D6 ||[M:4/4] G2 | G2 G2 F2 F2 | F2 E2 E2- || D2 | %10
 F2 E2 D2 C2 | D6 || D4 D4 |] %13
V:3
 A,2 | A,2 A,2 G,2 B,2 | A,6 || A,2 | A,2 D2 C2 ^A,2 | B,6 ||[M:4/4]"^1" B,2 | C2 E2 A,2 F,2 | %8
 =C2 B,2 ^A,2 ||"^1" B,2 |"^1" B,2 B,2 A,2 G,2 |"Bb" F,6 || B,4 A,4 |] %13
V:4
 D,2 | C,2 D,2 G,,2 G,,2 | A,,6 || C,2 | D,2 B,,2 F,2 F,2 | B,,6 ||[M:4/4] G,,2 | %7
 A,,2 C,2 D,2 ^D,2 | E,2 E,2 F,2 || B,,2 | G,,2 G,,2 A,,2 A,,2 | D,6 || G,,4 D,4 |] %13

